tracks/cpp.svg

<svg width="96" height="96" viewBox="0 0 96 96" fill="none" xmlns="http://www.w3.org/2000/svg">
<path d="M44 2.30935C46.4752 0.880283 49.5248 0.880284 52 2.30935L85.5692 21.6905C88.0444 23.1196 89.5692 25.7606 89.5692 28.6187V67.3811C89.5692 70.2393 88.0444 72.8803 85.5692 74.3093L52 93.6905C49.5248 95.1196 46.4752 95.1196 44 93.6905L10.4308 74.3093C7.95558 72.8803 6.43079 70.2393 6.43079 67.3811V28.6187C6.43079 25.7606 7.95558 23.1196 10.4308 21.6905L44 2.30935Z" fill="white"/>
<path fill-rule="evenodd" clip-rule="evenodd" d="M84.1907 22.9024L51.5701 4.06896C49.3322 2.77689 46.575 2.77689 44.337 4.06896L11.7165 22.9024C9.47853 24.1945 8.09991 26.5824 8.09991 29.1665V66.8335C8.09991 69.4176 9.47853 71.8055 11.7165 73.0975L44.337 91.931C46.575 93.2231 49.3322 93.2231 51.5701 91.931L84.1907 73.0975C86.4286 71.8055 87.8072 69.4176 87.8072 66.8335V29.1665C87.8072 26.5824 86.4286 24.1945 84.1907 22.9024ZM53.1201 1.38436C49.923 -0.461454 45.9841 -0.461455 42.7871 1.38436L10.1665 20.2178C6.96946 22.0637 5 25.4749 5 29.1665V66.8335C5 70.5251 6.96946 73.9363 10.1665 75.7821L42.7871 94.6156C45.9841 96.4614 49.923 96.4614 53.1201 94.6156L85.7406 75.7821C88.9377 73.9363 90.9071 70.5251 90.9071 66.8335V29.1665C90.9071 25.4749 88.9377 22.0637 85.7406 20.2178L53.1201 1.38436Z" fill="#341394"/>
<path fill-rule="evenodd" clip-rule="evenodd" d="M43.8621 68.2241C32.9101 68.2241 24 59.3141 24 48.3621C24 37.4101 32.9101 28.5 43.8621 28.5C50.9291 28.5 57.52 32.303 61.0624 38.4248L52.4666 43.3989C50.6936 40.3347 47.3963 38.431 43.8621 38.431C38.386 38.431 33.931 42.886 33.931 48.3621C33.931 53.838 38.386 58.2931 43.8621 58.2931C47.3967 58.2931 50.694 56.3895 52.4672 53.3247L61.063 58.2986C57.5206 64.4209 50.9295 68.2241 43.8621 68.2241ZM63.7241 47.2586H61.5171V45.0517H59.3105V47.2586H57.1034V49.4654H59.3105V51.6724H61.5171V49.4654H63.7241V47.2586ZM69.793 47.2586H72V49.4654H69.793V51.6724H67.5863V49.4654H65.3793V47.2586H67.5863V45.0517H69.793V47.2586Z" fill="#341394"/>
</svg>

<svg width="96" height="96" fill="none" xmlns="http://www.w3.org/2000/svg">
  <path d="M44 2.3093a8 8 0 018 0l33.5692 19.3812a8 8 0 014 6.9282v38.7624a7.9998 7.9998 0 01-4 6.9282L52 93.6905a7.9998 7.9998 0 01-8 0L10.4308 74.3093a7.9998 7.9998 0 01-4-6.9282V28.6187a8 8 0 014-6.9282L44 2.3093z" fill="#fff"/>
  <path fill-rule="evenodd" clip-rule="evenodd" d="M84.1907 22.9024L51.5701 4.069a7.233 7.233 0 00-7.2331 0L11.7165 22.9024a7.2332 7.2332 0 00-3.6166 6.2641v37.667a7.233 7.233 0 003.6166 6.264L44.337 91.931a7.233 7.233 0 007.2331 0l32.6206-18.8335a7.233 7.233 0 003.6165-6.264v-37.667a7.2333 7.2333 0 00-3.6165-6.2641zM53.1201 1.3844a10.333 10.333 0 00-10.333 0L10.1665 20.2178A10.3332 10.3332 0 005 29.1665v37.667a10.333 10.333 0 005.1665 8.9486l32.6206 18.8335a10.333 10.333 0 0010.333 0l32.6205-18.8335a10.3328 10.3328 0 005.1665-8.9486v-37.667a10.3331 10.3331 0 00-5.1665-8.9487L53.1201 1.3844z" fill="#821394"/>
  <path fill-rule="evenodd" clip-rule="evenodd" d="M43.8621 68.2241c-10.952 0-19.8621-8.91-19.8621-19.862C24 37.4101 32.9101 28.5 43.8621 28.5c7.067 0 13.6579 3.803 17.2003 9.9248l-8.5958 4.9741c-1.773-3.0642-5.0703-4.9679-8.6045-4.9679-5.4761 0-9.9311 4.455-9.9311 9.9311 0 5.4759 4.455 9.931 9.9311 9.931 3.5346 0 6.8319-1.9036 8.6051-4.9684l8.5958 4.9739c-3.5424 6.1223-10.1335 9.9255-17.2009 9.9255zm19.862-20.9655h-2.207v-2.2069h-2.2066v2.2069h-2.2071v2.2068h2.2071v2.207h2.2066v-2.207h2.207v-2.2068zm6.0689 0H72v2.2068h-2.207v2.207h-2.2067v-2.207h-2.207v-2.2068h2.207v-2.2069h2.2067v2.2069z" fill="#821394"/>
</svg>
